_includes/icons/ios-support.svg

<svg fill="#666" height="50" viewBox="0 0 50 50" width="50" xmlns="http://www.w3.org/2000/svg"><path d="m38.96875 0c-3.292969-.0117188-10.164062-.121094-13.84375 3.5625l-.65625.65625v.03125c-3.929687 3.957031-4.386719 9.871094-1.5625 14.3125l-20.5 18.75-.03125.03125c-.898437.898438-1.84375 2.40625-2.125 4.28125s.203125 4.109375 2.125 6.03125 4.15625 2.40625 6.03125 2.125 3.382813-1.226562 4.28125-2.125h.03125v-.03125s4.707031-5.324219 9.46875-10.625c2.382813-2.652344 4.765625-5.289062 6.59375-7.25.914063-.980469 1.703125-1.796875 2.25-2.34375.152344-.152344.230469-.238281.34375-.34375 4.445313 2.929688 10.421875 2.523438 14.40625-1.46875l.65625-.65625c1.796875-1.792969 2.628906-4.414062 3.0625-6.96875.433594-2.554687.429688-5.078125.4375-6.75.003906-.382812-.003906-.757812-.3125-1.125-.308594-.367187-.886719-.464844-1.1875-.40625-.601562.121094-.84375.4375-.84375.4375l-.03125.03125s-5.71875 5.746094-6.5 6.53125c-.03125.019531-.039062.023438-.09375.03125-.179687.027344-.460937.058594-.8125.0625-.699219.007813-1.660156-.039062-2.59375-.125-.933594-.085937-1.871094-.230469-2.59375-.375-.363281-.074219-.667969-.152344-.875-.21875-.074219-.023437-.117187-.039062-.15625-.0625-.023437-.035156-.042969-.070312-.0625-.125-.066406-.199219-.117187-.523437-.1875-.875-.140625-.703125-.265625-1.617187-.34375-2.53125-.078125-.914062-.121094-1.839844-.09375-2.53125.015625-.347656.027344-.628906.0625-.8125.019531-.089844.050781-.140625.0625-.15625.867188-.867187 6.5625-6.53125 6.5625-6.53125l.03125-.03125v-.03125s.296875-.210937.4375-.78125c.070313-.285156.046875-.839844-.3125-1.1875-.359375-.3476562-.746094-.40625-1.125-.40625zm-1.3125 2c-1.242187 1.242188-5.089844 5.089844-5.71875 5.71875-.375.375-.402344.695313-.46875 1.03125-.066406.335938-.109375.714844-.125 1.125-.035156.816406.011719 1.773438.09375 2.75.082031.976563.210938 1.945313.375 2.75.082031.402344.175781.777344.28125 1.09375s.171875.578125.5.90625c.335938.335938.585938.394531.90625.5.320313.105469.683594.199219 1.09375.28125.820313.164063 1.824219.28125 2.8125.375s1.945313.164063 2.75.15625c.402344-.003906.777344-.046875 1.09375-.09375s.585938.039063 1.03125-.40625c.492188-.496094 4.417969-4.472656 5.6875-5.75-.023437 1.558594-.019531 3.304688-.34375 5.21875-.398437 2.359375-1.203125 4.609375-2.53125 5.9375l-.65625.65625c-3.863281 3.867188-9.808594 3.765625-13.59375-.03125l-5-5c-3.78125-3.800781-3.878906-9.753906-.03125-13.625l.65625-.6875c2.488281-2.492187 7.742188-2.847656 11.1875-2.90625zm-13.65625 18c.164063.1875.320313.382813.5.5625l5 5c.136719.136719.292969.246094.4375.375-.070312.070313-.109375.109375-.1875.1875-.578125.574219-1.359375 1.386719-2.28125 2.375-1.84375 1.976563-4.242187 4.625-6.625 7.28125-4.753906 5.292969-9.410156 10.59375-9.4375 10.625l-.03125.03125c-.609375.597656-1.859375 1.351563-3.25 1.5625-1.40625.210938-2.917969-.042969-4.46875-1.59375s-1.835937-3.089844-1.625-4.5c.210938-1.390625.996094-2.640625 1.59375-3.25l.03125-.03125z"/></svg>

<svg xmlns="http://www.w3.org/2000/svg" viewBox="0 0 50 50" width="50" height="50" fill="#666"><path d="M 38.96875 0 C 35.675781 -0.0117188 28.804688 -0.121094 25.125 3.5625 L 24.46875 4.21875 L 24.46875 4.25 C 20.539063 8.207031 20.082031 14.121094 22.90625 18.5625 L 2.40625 37.3125 L 2.375 37.34375 C 1.476563 38.242188 0.53125 39.75 0.25 41.625 C -0.03125 43.5 0.453125 45.734375 2.375 47.65625 C 4.296875 49.578125 6.53125 50.0625 8.40625 49.78125 C 10.28125 49.5 11.789063 48.554688 12.6875 47.65625 L 12.71875 47.65625 L 12.71875 47.625 C 12.71875 47.625 17.425781 42.300781 22.1875 37 C 24.570313 34.347656 26.953125 31.710938 28.78125 29.75 C 29.695313 28.769531 30.484375 27.953125 31.03125 27.40625 C 31.183594 27.253906 31.261719 27.167969 31.375 27.0625 C 35.820313 29.992188 41.796875 29.585938 45.78125 25.59375 L 46.4375 24.9375 C 48.234375 23.144531 49.066406 20.523438 49.5 17.96875 C 49.933594 15.414063 49.929688 12.890625 49.9375 11.21875 C 49.941406 10.835938 49.933594 10.460938 49.625 10.09375 C 49.316406 9.726563 48.738281 9.628906 48.4375 9.6875 C 47.835938 9.808594 47.59375 10.125 47.59375 10.125 L 47.5625 10.15625 C 47.5625 10.15625 41.84375 15.902344 41.0625 16.6875 C 41.03125 16.707031 41.023438 16.710938 40.96875 16.71875 C 40.789063 16.746094 40.507813 16.777344 40.15625 16.78125 C 39.457031 16.789063 38.496094 16.742188 37.5625 16.65625 C 36.628906 16.570313 35.691406 16.425781 34.96875 16.28125 C 34.605469 16.207031 34.300781 16.128906 34.09375 16.0625 C 34.019531 16.039063 33.976563 16.023438 33.9375 16 C 33.914063 15.964844 33.894531 15.929688 33.875 15.875 C 33.808594 15.675781 33.757813 15.351563 33.6875 15 C 33.546875 14.296875 33.421875 13.382813 33.34375 12.46875 C 33.265625 11.554688 33.222656 10.628906 33.25 9.9375 C 33.265625 9.589844 33.277344 9.308594 33.3125 9.125 C 33.332031 9.035156 33.363281 8.984375 33.375 8.96875 C 34.242188 8.101563 39.9375 2.4375 39.9375 2.4375 L 39.96875 2.40625 L 39.96875 2.375 C 39.96875 2.375 40.265625 2.164063 40.40625 1.59375 C 40.476563 1.308594 40.453125 0.753906 40.09375 0.40625 C 39.734375 0.0585938 39.347656 0 38.96875 0 Z M 37.65625 2 C 36.414063 3.242188 32.566406 7.089844 31.9375 7.71875 C 31.5625 8.09375 31.535156 8.414063 31.46875 8.75 C 31.402344 9.085938 31.359375 9.464844 31.34375 9.875 C 31.308594 10.691406 31.355469 11.648438 31.4375 12.625 C 31.519531 13.601563 31.648438 14.570313 31.8125 15.375 C 31.894531 15.777344 31.988281 16.152344 32.09375 16.46875 C 32.199219 16.785156 32.265625 17.046875 32.59375 17.375 C 32.929688 17.710938 33.179688 17.769531 33.5 17.875 C 33.820313 17.980469 34.183594 18.074219 34.59375 18.15625 C 35.414063 18.320313 36.417969 18.4375 37.40625 18.53125 C 38.394531 18.625 39.351563 18.695313 40.15625 18.6875 C 40.558594 18.683594 40.933594 18.640625 41.25 18.59375 C 41.566406 18.546875 41.835938 18.632813 42.28125 18.1875 C 42.773438 17.691406 46.699219 13.714844 47.96875 12.4375 C 47.945313 13.996094 47.949219 15.742188 47.625 17.65625 C 47.226563 20.015625 46.421875 22.265625 45.09375 23.59375 L 44.4375 24.25 C 40.574219 28.117188 34.628906 28.015625 30.84375 24.21875 L 25.84375 19.21875 C 22.0625 15.417969 21.964844 9.464844 25.8125 5.59375 L 26.46875 4.90625 C 28.957031 2.414063 34.210938 2.058594 37.65625 2 Z M 24 20 C 24.164063 20.1875 24.320313 20.382813 24.5 20.5625 L 29.5 25.5625 C 29.636719 25.699219 29.792969 25.808594 29.9375 25.9375 C 29.867188 26.007813 29.828125 26.046875 29.75 26.125 C 29.171875 26.699219 28.390625 27.511719 27.46875 28.5 C 25.625 30.476563 23.226563 33.125 20.84375 35.78125 C 16.089844 41.074219 11.433594 46.375 11.40625 46.40625 L 11.375 46.4375 C 10.765625 47.035156 9.515625 47.789063 8.125 48 C 6.71875 48.210938 5.207031 47.957031 3.65625 46.40625 C 2.105469 44.855469 1.820313 43.316406 2.03125 41.90625 C 2.242188 40.515625 3.027344 39.265625 3.625 38.65625 L 3.65625 38.625 Z"/></svg>
